!!!OTL: IV. Bittfahrtslied. (16. Jahrh.)
!!!ARE: Europa, Mitteleuropa, Deutschland
!!!SCT: A0568B
!!!TXL: @@DE, (@@LAT)
!!!YEM: Copyright 1995, estate of Helmut Schaffrath.
**kern	**text
*M2/1	*
*met(c|)	*
*clefC4	*
*k[b-]	*
*G:dor	*
=1	=1
!LO:TX:a:t=dor. tr.	!
1ryy	.
2ryy	.
{2G	Jn
=2	=2
1G	Got-
1G	-tes
=3	=3
1G	Na-
1G	-men
=4	=4
2G	fah-
2A/	.
1B-	-ren
=5	=5
0c}	wir,
=6||	=6||
{1d	Sey-
1d	-ner
=7-	=7-
1c	gna-
2G	-den
2G	be-
=8	=8
2G	-geh-
2A/	.
1B-	-ren
=9	=9
1c	wir;
2r}	.
{2c	Ver-
=10	=10
1d	-leyh
1d	vns
=11	=11
1c	die
1G	auß
=12	=12
1A	güt-
1G	-tic-
=13	=13
1F	-keyt,
2r}	.
{2F	O
=14	=14
1A	hey-
1B-	-li-
=15	=15
1c	-ge
1c	try-
=16	=16
1B-	-fal-
1G	-tic-
=17	=17
0B-}	-keyt.
=18||	=18||
{1A	Ky-
1G	-rie-
=19	=19
1G	-lei-
1F	.
=20	=20
0G/ll}	-ſon!
==	==
!!!GTL: Geistliche Volkslieder
!!!AGN: Romanze, Ballade, Lied, religioeses Lied
!! Behe, Kath. Gsgb. 1537 No. 30
!!!ONB: ESAC (Essen Associative Code) Database: ALTDEU
!!!AMT: simple duple
!!!AIN: vox
!!!EED: Helmut Schaffrath
!!!EEV: 1.0
!!!RDF**kern: l = terminal long
!!!AMD: Dorian
!!!URL-scan: https://rosdok.uni-rostock.de/mcrviewer/recordIdentifier/rosdok_ppn738218359/iview2/phys_0750.iview2?x=-1583.232250273661&y=1486.9284500638023&scale=0.2846028696088022&rotation=0&layout=singlePageLayout&logicalDiv=log_0021
!!!ENC: Anna Maria Matuszewska
!!!EEV: 2024/21/03
*-	*-
